X: 37510
T: Sling The Hatchet
R: reel
M: 4/4
K: Gmajor
Bc|dBcd efge|dBGB AGBG|DG (3GFG DG (3GFG|AGAB A2Bc|
dBcd efge|dBGB AGBG|DG (3GFG DG (3GFG|AcBA G2:|ga|
b2g2 ed (3d=cd|Bd (3d^cd ed (3dcd|b3a gfed|Bee^d efga|
bagf gfed|Bd (3d^cd ed (3d^cd|bagf gfed|1 Bgfg agfg:|2 ecAF G2||

